svgs/cie.svg

<svg xmlns="http://www.w3.org/2000/svg" viewBox="0 0 1000 1000"><title>cie</title><g id="all_icons" data-name="all icons"><g id="Layer_437" data-name="Layer 437"><path d="M157.13,768.333H276.389V708.7H157.13V291.3H276.389V231.667H157.13A59.8,59.8,0,0,0,97.5,291.3V708.7A59.8,59.8,0,0,0,157.13,768.333Z"/><path d="M520.073,554.5a54.5,54.5,0,1,0,54.5,54.5A54.66,54.66,0,0,0,520.073,554.5Zm-218,0a54.5,54.5,0,1,0,54.5,54.5A54.66,54.66,0,0,0,302.072,554.5Zm109-109a54.5,54.5,0,1,0,54.5,54.5A54.66,54.66,0,0,0,411.072,445.5Zm-109,0a54.5,54.5,0,1,0-54.5-54.5A54.66,54.66,0,0,0,302.072,445.5Zm218-109a54.5,54.5,0,1,0,54.5,54.5A54.661,54.661,0,0,0,520.073,336.5Z"/></g></g><g id="guides"><rect width="1000" height="1000" style="fill:none"/><path d="M724.645,432.917V291.3a59.8,59.8,0,0,0-59.63-59.629H545.756V291.3H665.015V708.7H545.756v59.629H665.015a59.8,59.8,0,0,0,59.63-59.629V567.083L903.534,745.972V254.028Z"/></g></svg>

<svg xmlns="http://www.w3.org/2000/svg" viewBox="0 0 1000 1000"><title>cie</title><g id="guides"><rect width="1000" height="1000" style="fill:none"/><path d="M97.5,708.7V291.3a59.8,59.8,0,0,1,59.63-59.629H276.389V291.3H157.13V708.7H276.389v59.629H157.13A59.8,59.8,0,0,1,97.5,708.7ZM574.573,609a54.5,54.5,0,1,1-54.5-54.5A54.66,54.66,0,0,1,574.573,609Zm-218,0a54.5,54.5,0,1,1-54.5-54.5A54.66,54.66,0,0,1,356.572,609Zm109-109a54.5,54.5,0,1,1-54.5-54.5A54.661,54.661,0,0,1,465.573,500Zm-218-109a54.5,54.5,0,1,1,54.5,54.5A54.661,54.661,0,0,1,247.572,391Zm327,0a54.5,54.5,0,1,1-54.5-54.5A54.66,54.66,0,0,1,574.573,391Zm150.072,41.917V291.3a59.8,59.8,0,0,0-59.63-59.629H545.756V291.3H665.015V708.7H545.756v59.629H665.015a59.8,59.8,0,0,0,59.63-59.629V567.083L903.534,745.972V254.028Z"/></g></svg>
